static/files/dsdtree/Azure Batch.svg

<?xml version="1.0" encoding="UTF-8"?>
<!-- Created with Inkscape (http://www.inkscape.org/) -->
<svg width="100" height="100" version="1.1" viewBox="0 0 26.458 26.458" xmlns="http://www.w3.org/2000/svg" xmlns:cc="http://creativecommons.org/ns#" xmlns:dc="http://purl.org/dc/elements/1.1/" xmlns:rdf="http://www.w3.org/1999/02/22-rdf-syntax-ns#">
 <metadata>
  <rdf:RDF>
   <cc:Work rdf:about="">
    <dc:format>image/svg+xml</dc:format>
    <dc:type rdf:resource="http://purl.org/dc/dcmitype/StillImage"/>
    <dc:title/>
   </cc:Work>
  </rdf:RDF>
 </metadata>
 <g transform="translate(0 -270.54)">
  <g transform="matrix(.43598 0 0 .43598 2.1116 272.87)" fill="#2165b6">
   <g fill="#2165b6">
    <path d="m30 3.2c0-0.7-0.5-1.2-1.2-1.2h-26.6c-0.7 0-1.2 0.5-1.2 1.2v3.8h29zm-17.296 7.044c0.06-0.062 0.207-0.194 0.396-0.194h0.186l0.967 0.753 0.197 0.194v3e-3h15.55v-3h-29v18.8c0 0.7 0.5 1.2 1.2 1.2h7.8v-3.306l-0.784 0.987-3.298-3.51-0.295-0.294c-0.198-0.199-0.198-0.455 0-0.653l0.813-0.711 0.161-0.162h0.103c0.2 0 0.31 0.078 0.341 0.243l1.945 2.122 1.014-1.274v-4.548l-0.784 0.987-3.298-3.51-0.295-0.295c-0.198-0.199-0.198-0.455 0-0.653l0.813-0.712 0.161-0.162h0.103c0.2 0 0.31 0.078 0.341 0.243l1.945 2.122 1.014-1.273v-0.441c0-1.218 0.894-2.137 2.094-2.19zm-1.704 2.956v3.8h29v-3.8c0-0.7-0.5-1.2-1.2-1.2h-26.6c-0.7 0-1.2 0.5-1.2 1.2zm37.8 8.8h-26.6c-0.7 0-1.2 0.5-1.2 1.2v3.8h29v-3.8c0-0.7-0.5-1.2-1.2-1.2zm-26.096-1.756c0.06-0.062 0.207-0.194 0.396-0.194h0.186l0.967 0.753 0.197 0.194v3e-3h15.55v-3h-29v18.8c0 0.7 0.5 1.2 1.2 1.2h7.8v-3.306l-0.784 0.987-3.298-3.51-0.295-0.294c-0.198-0.199-0.198-0.455 0-0.653l0.813-0.711 0.161-0.162h0.103c0.2 0 0.31 0.078 0.341 0.243l1.945 2.122 1.014-1.274v-4.548l-0.784 0.987-3.298-3.51-0.295-0.295c-0.198-0.199-0.198-0.455 0-0.653l0.813-0.712 0.161-0.162h0.103c0.2 0 0.31 0.078 0.341 0.243l1.945 2.122 1.014-1.273v-0.441c0-1.218 0.894-2.137 2.094-2.19zm-1.704 26.556c0 0.7 0.5 1.2 1.2 1.2h26.6c0.7 0 1.2-0.5 1.2-1.2v-18.8h-29zm14-12.8h11v2h-11zm0 8h11v2h-11zm-9.377-8.576 0.813-0.712 0.161-0.162h0.103c0.2 0 0.31 0.078 0.341 0.243l1.945 2.122 3.718-4.671c0.06-0.062 0.207-0.194 0.396-0.194h0.186l0.967 0.753 0.197 0.194v0.29l-5.234 6.595-3.298-3.51-0.295-0.295c-0.198-0.199-0.198-0.455 0-0.653zm0 7.801 0.813-0.711 0.161-0.162h0.103c0.2 0 0.31 0.078 0.341 0.243l1.945 2.122 3.718-4.671c0.06-0.062 0.207-0.194 0.396-0.194h0.186l0.967 0.752 0.197 0.194v0.289l-5.234 6.595-3.298-3.51-0.295-0.294c-0.198-0.199-0.198-0.455 0-0.653z" fill="#2165b6"/>
   </g>
  </g>
 </g>
</svg>

<?xml version="1.0" encoding="utf-8"?>
<!-- Generator: Adobe Illustrator 21.0.0, SVG Export Plug-In . SVG Version: 6.00 Build 0)  -->
<svg version="1.1" id="Layer_1" xmlns="http://www.w3.org/2000/svg" xmlns:xlink="http://www.w3.org/1999/xlink" x="0px" y="0px"
	 width="50px" height="50px" viewBox="0 0 50 50" enable-background="new 0 0 50 50" xml:space="preserve">
<g>
	<g>
		<path fill="#0072C6" d="M30,3.2C30,2.5,29.5,2,28.8,2H2.2C1.5,2,1,2.5,1,3.2V7h29V3.2z M12.704,10.244
			c0.06-0.062,0.207-0.194,0.396-0.194h0.186l0.967,0.753l0.197,0.194V11H30V8H1v18.8C1,27.5,1.5,28,2.2,28H10v-3.306l-0.784,0.987
			l-3.298-3.51l-0.295-0.294c-0.198-0.199-0.198-0.455,0-0.653l0.813-0.711l0.161-0.162H6.7c0.2,0,0.31,0.078,0.341,0.243
			l1.945,2.122L10,21.442v-4.548l-0.784,0.987l-3.298-3.51l-0.295-0.295c-0.198-0.199-0.198-0.455,0-0.653l0.813-0.712l0.161-0.162
			H6.7c0.2,0,0.31,0.078,0.341,0.243l1.945,2.122L10,13.641V13.2c0-1.218,0.894-2.137,2.094-2.19L12.704,10.244z M11,13.2V17h29
			v-3.8c0-0.7-0.5-1.2-1.2-1.2H12.2C11.5,12,11,12.5,11,13.2z M48.8,22H22.2c-0.7,0-1.2,0.5-1.2,1.2V27h29v-3.8
			C50,22.5,49.5,22,48.8,22z M22.704,20.244c0.06-0.062,0.207-0.194,0.396-0.194h0.186l0.967,0.753l0.197,0.194V21H40v-3H11v18.8
			c0,0.7,0.5,1.2,1.2,1.2H20v-3.306l-0.784,0.987l-3.298-3.51l-0.295-0.294c-0.198-0.199-0.198-0.455,0-0.653l0.813-0.711
			l0.161-0.162H16.7c0.2,0,0.31,0.078,0.341,0.243l1.945,2.122L20,31.442v-4.548l-0.784,0.987l-3.298-3.51l-0.295-0.295
			c-0.198-0.199-0.198-0.455,0-0.653l0.813-0.712l0.161-0.162H16.7c0.2,0,0.31,0.078,0.341,0.243l1.945,2.122L20,23.641V23.2
			c0-1.218,0.894-2.137,2.094-2.19L22.704,20.244z M21,46.8c0,0.7,0.5,1.2,1.2,1.2h26.6c0.7,0,1.2-0.5,1.2-1.2V28H21V46.8z M35,34
			h11v2H35V34z M35,42h11v2H35V42z M25.623,33.424l0.813-0.712l0.161-0.162H26.7c0.2,0,0.31,0.078,0.341,0.243l1.945,2.122
			l3.718-4.671c0.06-0.062,0.207-0.194,0.396-0.194h0.186l0.967,0.753l0.197,0.194v0.29l-5.234,6.595l-3.298-3.51l-0.295-0.295
			C25.425,33.878,25.425,33.622,25.623,33.424z M25.623,41.225l0.813-0.711l0.161-0.162H26.7c0.2,0,0.31,0.078,0.341,0.243
			l1.945,2.122l3.718-4.671c0.06-0.062,0.207-0.194,0.396-0.194h0.186l0.967,0.752l0.197,0.194c0,0,0,0.289,0,0.289l-5.234,6.595
			l-3.298-3.51l-0.295-0.294C25.425,41.679,25.425,41.423,25.623,41.225z"/>
	</g>
</g>
</svg>
